X: 522
T: Done Gone
B: jims roots
M:4/4
L:1/8
Q: 1/4=100
K:Bb
V:1 
|: Bc | "Bb"dBFD B,CDF | "Gm"GABd "Eb"g2f2 | "Bb"bgfb "Gm"gfdg | "C7"fdcd "F"cBGB |
"Bb"dBFD B,CDF | "Gm" GABd "Eb"g2f2 | "Bb"bgfb gfdg | "F"fd (3cdc"Bb"B2 :|
df |:"Gm"g2-g2 gfdf | gfga b2b2  | "F"fgfd cBdc | BGFG Bcdf |
  "Gm"g2-ga gfdf |  gfga b2(3fga |  "Bb"bgfb "Gm"gfdg | "F"fd (3cdc"Bb"B4:|
|:"Gm"[G,2D2B2(g2] g)a gfdf | gfga b2bg | "F"fdfb gfdg | fdcB c2- c2 |
  "Gm"[G,2D2B2(g2] g)a gfdf | gfga b2bg | "Bb"fdfb "Gm"gfdg | "F"fdcd "Bb"B2- B2:|
|:"Gm"[G,G]GGG [G,G]FDF | GABcd2 (3d=e^f | "D7"g2 d_e- edc2 | dcde dcBA |
  "Gm"G2GA GFDF | GABcd2-d2 | "D7"d2de dcBA| GBAF "Gm"G4 :|
% abcbook-tune_id 6298c245c244265bb3017775


% abcbook-boost 0
% abcbook-tablature 
% abcbook-transpose 
% abcbook-lastupdated 1654178374003
% abcbook-soundfonts 
% abcbook-repeats 1


